images/icons/clock.svg

<svg width="24" height="24" viewBox="0 0 24 24" xmlns="http://www.w3.org/2000/svg"><title>Shape</title><desc>Created with Sketch.</desc><path d="M12 24c-6.6 0-12-5.4-12-12s5.4-12 12-12 12 5.4 12 12-5.4 12-12 12zm-.526-11.126c-.296-.163-.474-.474-.474-.874v-7c0-.6.4-1 1-1s1 .4 1 1v6.6l3.7 3.7c.4.4.4 1 0 1.4-.2.2-.4.3-.7.3-.3 0-.5-.1-.7-.3l-3.826-3.826zm.526-10.874c-5.5 0-10 4.5-10 10s4.5 10 10 10 10-4.5 10-10-4.5-10-10-10z" fill="#49B9E8"/></svg>

<?xml version="1.0" encoding="UTF-8" standalone="no"?>
<svg width="24px" height="24px" viewBox="0 0 24 24" version="1.1" xmlns="http://www.w3.org/2000/svg" xmlns:xlink="http://www.w3.org/1999/xlink">
    <!-- Generator: Sketch 3.6.1 (26313) - http://www.bohemiancoding.com/sketch -->
    <title>Shape</title>
    <desc>Created with Sketch.</desc>
    <defs></defs>
    <g id="Mobile-design" stroke="none" stroke-width="1" fill="none" fill-rule="evenodd">
        <g id="Mobile-Portrait" transform="translate(-38.000000, -2220.000000)" fill="#49B9E8">
            <g id="Group-6" transform="translate(38.000000, 2220.000000)">
                <path d="M12,24 C5.4,24 0,18.6 0,12 C0,5.4 5.4,0 12,0 C18.6,0 24,5.4 24,12 C24,18.6 18.6,24 12,24 L12,24 Z M11.4740741,12.8740741 C11.1777778,12.7111111 11,12.4 11,12 L11,5 C11,4.4 11.4,4 12,4 C12.6,4 13,4.4 13,5 L13,11.6 L16.7,15.3 C17.1,15.7 17.1,16.3 16.7,16.7 C16.5,16.9 16.3,17 16,17 C15.7,17 15.5,16.9 15.3,16.7 L11.4740741,12.8740741 Z M12,2 C6.5,2 2,6.5 2,12 C2,17.5 6.5,22 12,22 C17.5,22 22,17.5 22,12 C22,6.5 17.5,2 12,2 Z" id="Shape"></path>
            </g>
        </g>
    </g>
</svg>
